!!!SOCIAL_FUNCTION:	miscellaneous songs
!!!PDT:	1957
!!!OTL: No_14_Corn-grinding_Song.krn
!!!LING_GROUP: Keresan
!!!LANG: Tone
!!!REG: Southwest
**kern
*staff1
=1-
*clefF4
*k[f#c#g#d#a#]
*M2/4
8B\L
8B\J
8B\L
8B\J
=2
8F#\L
8B\J
4B\
=3!|:
*M3/4
8g#\L
8f#\J
8b\L
8f#\J
4f#\
=4
8f#\L
8B\J
16d#\LK
8B\
16G#\Jk
8G#\L
8F#\J
=5
*M2/4
8B\L
8G#\J
8B\L
8B\J
=6
8G#\L
8G#\J
4G#\
=7
8r
8G#\
4G#\
=8:|!
16d#\LL
16B\J
8d#\J
8d#\L
8B\J
=9
8G#\L
8d#\J
4d#\
=10
8B\L
8d#\J
16d#\LL
16B\J
8B\J
=11
8G#\L
8G#\J
4G#\
=12
16d#\LL
16B\J
8d#\J
8d#\L
8B\J
=13
8G#\L
8d#\J
4d#\
=14
8B\L
8d#\J
16d#\LL
16B\J
8B\J
=15
8G#\L
8G#\J
8G#\
8r
=16
*M3/4
16B\LL
16G#\J
8G#\J
8G#\L
8B\J
8B\L
8B\J
=17
8G#\L
8G#\J
8G#\L
8B\J
8B\L
8B\J
=18
8G#\L
8G#\J
8G#\L
8G#\J
8G#\
8r
=19
16B\LL
16G#\J
8G#\J
8G#\L
8d#\J
8B\L
8B\J
=20
8G#\L
8G#\J
8G#\L
8d#\J
8B\L
8B\J
=21
8G#\L
16G#\Jk
16r
8G#\L
8d#\J
8B\L
8B\J
=22
8G#\L
8G#\J
8G#\L
8d#\J
8B\L
8d#\J
=23
8B\L
8G#\J
8G#\L
8G#\J
8G#\
8r
=24
8B\L
8G#\J
8G#\L
8d#\J
8B\L
8d#\J
=25
4G#\
8G#\L
8G#\J
8G#\L
8G#\J
=26
4G#\
4G#\
4r
==
*-
